assets/Woman supervillain/Default/Flat/woman_supervillain_flat_default.svg

<svg width="32" height="32" viewBox="0 0 32 32" fill="none" xmlns="http://www.w3.org/2000/svg">
<path d="M23.4905 10.5032C23.4905 11.0096 23.3759 11.4968 23.1658 11.9268C23.0894 12.0701 23.0894 12.242 23.1754 12.3758C23.3854 12.7962 23.5 13.2739 23.5 13.7803C23.5 15.5573 22.0582 17 20.2823 17H11.7177C9.94176 17 8.5 15.5573 8.5 13.7803C8.5 13.2739 8.61458 12.7962 8.82463 12.3758C8.89147 12.2325 8.89147 12.0605 8.82463 11.9172C8.61458 11.4873 8.5 11.0096 8.5 10.4936C8.5 9.82484 8.70051 9.20382 9.04424 8.67834C9.38797 8.15287 9.56938 7.5414 9.56938 6.91083V6.90127C9.56938 5.07643 11.0493 3.6051 12.8635 3.6051C13.0353 3.6051 13.2072 3.51911 13.3122 3.3758C13.9042 2.54459 14.8781 2 15.9857 2C17.0933 2 18.0672 2.54459 18.6687 3.3758C18.7642 3.51911 18.936 3.6051 19.1174 3.6051C20.9411 3.6051 22.4115 5.08599 22.4115 6.90127V6.91083C22.4115 7.5414 22.5929 8.15287 22.9462 8.6879C23.2899 9.20382 23.4905 9.83439 23.4905 10.5032Z" fill="#F1A11E"/>
<path d="M6 16.9199C6 16.9199 2 22 2 30H5L16 27L27 30H30C30 21.99 26 16.9199 26 16.9199H6Z" fill="#533566"/>
<path d="M16 17C13.24 17 10.69 16.4001 8.77002 18.1901V30.0101H23.23V18.1601C21.31 16.3901 18.74 17 16 17Z" fill="#6B438B"/>
<path d="M15.56 21.32L12 16.01H20L16.47 21.33C16.25 21.65 15.78 21.65 15.56 21.32Z" fill="#C3EF3C"/>
<path d="M14 16.5886C14 17.9143 14.8889 18.75 15.9953 18.75C17.1017 18.75 17.9905 17.9143 18 16.5886V15H14V16.5886Z" fill="#8D65C5"/>
<path d="M5.88889 22.6193L5.85637 22.7005C5.29268 24.3756 5 26.132 5 27.8985V30H9V18C7.59079 19.2386 6.49594 20.8122 5.88889 22.6193Z" fill="#8D65C5"/>
<path d="M26.9997 27.9342C27.0105 26.1519 26.7287 24.3797 26.1651 22.6785C25.5472 20.8456 24.4416 19.2456 23 18V30H26.9889L26.9997 27.9342Z" fill="#8D65C5"/>
<path d="M6.00008 16H14.0001V16.7284C14.0001 18.7599 12.7783 20.5861 10.9406 21.3146C9.7089 21.7968 8.29837 21.3146 7.60304 20.1449L5.55678 16.7387C5.37798 16.3899 5.62261 15.9589 6.00008 16Z" fill="#F92F60"/>
<path d="M25.9765 16H18.0001V16.7284C18.0001 18.7599 19.2219 20.5861 21.0595 21.3146C22.2913 21.7968 23.7018 21.3146 24.3971 20.1449L26.4434 16.7387C26.6222 16.3899 26.354 15.9589 25.9765 16Z" fill="#F92F60"/>
<path d="M16.125 25.75C17.0225 25.75 17.75 25.0225 17.75 24.125C17.75 23.2275 17.0225 22.5 16.125 22.5C15.2275 22.5 14.5 23.2275 14.5 24.125C14.5 25.0225 15.2275 25.75 16.125 25.75Z" fill="#F92F60"/>
<path d="M17.0522 23.3024C17.2722 23.6024 17.2522 23.9924 17.0022 24.1724C16.7522 24.3524 16.3722 24.2624 16.1522 23.9624C15.9322 23.6624 15.9522 23.2724 16.2022 23.0924C16.4522 22.9124 16.8322 23.0024 17.0522 23.3024Z" fill="#F7A7B8"/>
<path d="M7 16H8C8 15.7222 7.78505 15.5 7.50467 15.5C7.2243 15.5 7 15.7222 7 16Z" fill="#8D65C5"/>
<path d="M9.5 15.5C9.22222 15.5 9 15.7222 9 16H10C10 15.7222 9.77778 15.5 9.5 15.5Z" fill="#8D65C5"/>
<path d="M10 17C10 16.7222 10.2222 16.5 10.5 16.5C10.7778 16.5 11 16.7222 11 17H10Z" fill="#8D65C5"/>
<path d="M8 17H9C9 16.7222 8.78505 16.5 8.50467 16.5C8.2243 16.5 8 16.7222 8 17Z" fill="#8D65C5"/>
<path d="M23 16H22C22 15.7222 22.2222 15.5 22.5 15.5C22.7778 15.5 23 15.7222 23 16Z" fill="#8D65C5"/>
<path d="M24.5 15.5C24.2222 15.5 24 15.7222 24 16H25C25 15.7222 24.7778 15.5 24.5 15.5Z" fill="#8D65C5"/>
<path d="M23 17C23 16.7222 23.2222 16.5 23.5 16.5C23.7778 16.5 24 16.7222 24 17H23Z" fill="#8D65C5"/>
<path d="M21 17H22C22 16.7222 21.7778 16.5 21.5 16.5C21.2222 16.5 21 16.7222 21 17Z" fill="#8D65C5"/>
<path d="M12.75 10.625C12.75 11.5225 12.0225 12.25 11.125 12.25C10.2275 12.25 9.5 11.5225 9.5 10.625C9.5 9.72754 10.2275 9 11.125 9C12.0225 9 12.75 9.72754 12.75 10.625Z" fill="#FDBB11"/>
<path d="M22.5 10.625C22.5 11.5225 21.7725 12.25 20.875 12.25C19.9775 12.25 19.25 11.5225 19.25 10.625C19.25 9.72754 19.9775 9 20.875 9C21.7725 9 22.5 9.72754 22.5 10.625Z" fill="#FDBB11"/>
<path d="M19.8794 7.5449H16.7265C15.4729 7.5449 14.3048 6.91766 13.6021 5.86582C13.4786 5.69212 13.2222 5.72107 13.1462 5.91407L13.0703 6.10707C12.8424 6.66676 12.415 7.11066 11.8927 7.34226C11.8547 7.36156 11.8262 7.37121 11.7882 7.39051C11.5603 7.5063 11.0095 7.873 11 8.82834L11.133 12.0225C11.2469 14.8499 13.3932 16.7509 16.0047 16.7509C18.6163 16.7509 20.7626 14.8499 20.8765 12.0225L21 8.98274C20.981 7.6414 20.0598 7.5449 19.8794 7.5449Z" fill="#FFC83D"/>
<path d="M15.6435 10.1801L15.1492 11.8601C15.0447 12.2001 15.2918 12.5501 15.634 12.5501H16.366C16.7082 12.5501 16.9553 12.2001 16.8508 11.8601L16.3565 10.1801C16.2519 9.81009 15.7576 9.81009 15.6435 10.1801Z" fill="#ED9200"/>
<path d="M16.9409 13.9039C16.592 14.0495 16.222 14.1174 15.8732 14.098C15.7569 14.0883 15.704 14.2339 15.7992 14.2921C16.2009 14.5251 16.7083 14.5736 17.1735 14.3795C17.6386 14.1854 17.9241 13.7971 17.9981 13.3701C18.0192 13.2633 17.8606 13.2051 17.7972 13.2924C17.5858 13.5351 17.2898 13.7583 16.9409 13.9039Z" fill="#990839"/>
<path d="M15.34 8.80669C15.49 9.02669 15.72 9.20667 16 9.20667C16.28 9.20667 16.54 9.02669 16.68 8.80669C16.92 8.44669 17.28 8.16669 17.72 8.09669L23.04 6.51669C23.37 6.41669 23.64 6.78669 23.45 7.07669L20.02 12.2167L19.55 12.9067C19.27 13.3167 18.68 13.3467 18.36 12.9667C18.36 12.9667 16.62 11.0267 16.5 10.7067C16.5 10.7067 16.2817 10.2011 16 10.2067C15.7239 10.2121 15.5 10.7067 15.5 10.7067C15.38 11.0267 13.66 12.9667 13.66 12.9667C13.34 13.3467 12.75 13.3167 12.47 12.9067L12 12.2167L8.57005 7.07669C8.38005 6.78669 8.65005 6.41669 8.98005 6.51669L14.3 8.09669C14.74 8.16669 15.1 8.44669 15.34 8.80669Z" fill="#533566"/>
<path d="M14.59 10.067C14.35 10.477 13.84 10.697 13.35 10.547C12.84 10.397 12.53 9.90697 12.58 9.40697C12.59 9.29697 12.7 9.22697 12.81 9.25697L14.47 9.75697C14.6 9.79697 14.66 9.94697 14.59 10.067Z" fill="#C3EF3C"/>
<path d="M17.3201 10.067C17.5601 10.477 18.0701 10.697 18.5601 10.547C19.0701 10.397 19.3801 9.90697 19.3301 9.40697C19.3201 9.29697 19.2101 9.22697 19.1001 9.25697L17.4401 9.75697C17.3101 9.79697 17.2501 9.94697 17.3201 10.067Z" fill="#C3EF3C"/>
</svg>

<svg xmlns="http://www.w3.org/2000/svg" width="32" height="32" fill="none"><path fill="#F1A11E" d="M23.49 10.503c0 .507-.114.994-.324 1.424a.444.444 0 0 0 .01.449A3.22 3.22 0 0 1 20.282 17h-8.565a3.22 3.22 0 0 1-2.893-4.624.55.55 0 0 0 0-.459 3.3 3.3 0 0 1 .22-3.239 3.22 3.22 0 0 0 .524-1.767V6.9a3.296 3.296 0 0 1 3.294-3.296.565.565 0 0 0 .45-.23A3.272 3.272 0 0 1 15.985 2c1.107 0 2.081.545 2.683 1.376.095.143.267.23.448.23A3.296 3.296 0 0 1 22.411 6.9v.01c0 .63.182 1.242.535 1.777.344.516.544 1.146.544 1.815Z"/><path fill="#533566" d="M6 16.92S2 22 2 30h3l11-3 11 3h3c0-8.01-4-13.08-4-13.08H6Z"/><path fill="#6B438B" d="M16 17c-2.76 0-5.31-.6-7.23 1.19v11.82h14.46V18.16C21.31 16.39 18.74 17 16 17Z"/><path fill="#C3EF3C" d="M15.56 21.32 12 16.01h8l-3.53 5.32c-.22.32-.69.32-.91-.01Z"/><path fill="#8D65C5" d="M14 16.589c0 1.325.889 2.161 1.995 2.161 1.107 0 1.996-.836 2.005-2.161V15h-4v1.589ZM5.889 22.62l-.033.08A16.307 16.307 0 0 0 5 27.899V30h4V18c-1.41 1.239-2.504 2.812-3.111 4.62ZM27 27.934a16.384 16.384 0 0 0-.835-5.256A10.706 10.706 0 0 0 23 18v12h3.989l.01-2.066Z"/><path fill="#F92F60" d="M6 16h8v.728c0 2.032-1.222 3.858-3.06 4.587a2.727 2.727 0 0 1-3.337-1.17l-2.046-3.406c-.179-.35.066-.78.443-.739ZM25.977 16H18v.728c0 2.032 1.222 3.858 3.06 4.587 1.231.482 2.642 0 3.337-1.17l2.046-3.406c.18-.35-.089-.78-.466-.739ZM16.125 25.75a1.625 1.625 0 1 0 0-3.25 1.625 1.625 0 0 0 0 3.25Z"/><path fill="#F7A7B8" d="M17.052 23.302c.22.3.2.69-.05.87-.25.18-.63.09-.85-.21-.22-.3-.2-.69.05-.87.25-.18.63-.09.85.21Z"/><path fill="#8D65C5" d="M7 16h1c0-.278-.215-.5-.495-.5A.5.5 0 0 0 7 16ZM9.5 15.5c-.278 0-.5.222-.5.5h1c0-.278-.222-.5-.5-.5ZM10 17c0-.278.222-.5.5-.5s.5.222.5.5h-1ZM8 17h1c0-.278-.215-.5-.495-.5A.5.5 0 0 0 8 17ZM23 16h-1c0-.278.222-.5.5-.5s.5.222.5.5ZM24.5 15.5c-.278 0-.5.222-.5.5h1c0-.278-.222-.5-.5-.5ZM23 17c0-.278.222-.5.5-.5s.5.222.5.5h-1ZM21 17h1c0-.278-.222-.5-.5-.5s-.5.222-.5.5Z"/><path fill="#FDBB11" d="M12.75 10.625a1.625 1.625 0 1 1-3.25 0 1.625 1.625 0 0 1 3.25 0ZM22.5 10.625a1.625 1.625 0 1 1-3.25 0 1.625 1.625 0 0 1 3.25 0Z"/><path fill="#FFC83D" d="M19.88 7.545h-3.153a3.755 3.755 0 0 1-3.125-1.68.259.259 0 0 0-.456.05l-.076.192a2.291 2.291 0 0 1-1.177 1.235c-.038.02-.067.03-.105.049-.228.115-.779.482-.788 1.437l.133 3.195c.114 2.827 2.26 4.728 4.872 4.728 2.611 0 4.758-1.901 4.872-4.729L21 8.983c-.019-1.34-.94-1.437-1.12-1.437Z"/><path fill="#ED9200" d="m15.643 10.18-.494 1.68c-.104.34.143.69.485.69h.732c.342 0 .59-.35.485-.69l-.494-1.68c-.105-.37-.6-.37-.713 0Z"/><path fill="#990839" d="M16.94 13.904a2.448 2.448 0 0 1-1.067.194c-.116-.01-.169.136-.074.194.402.233.91.282 1.375.088a1.34 1.34 0 0 0 .824-1.01c.021-.107-.137-.165-.2-.078a2.348 2.348 0 0 1-.857.612Z"/><path fill="#533566" d="M15.34 8.807c.15.22.38.4.66.4s.54-.18.68-.4c.24-.36.6-.64 1.04-.71l5.32-1.58c.33-.1.6.27.41.56l-3.43 5.14-.47.69c-.28.41-.87.44-1.19.06 0 0-1.74-1.94-1.86-2.26 0 0-.218-.506-.5-.5-.276.005-.5.5-.5.5-.12.32-1.84 2.26-1.84 2.26-.32.38-.91.35-1.19-.06l-.47-.69-3.43-5.14c-.19-.29.08-.66.41-.56l5.32 1.58c.44.07.8.35 1.04.71Z"/><path fill="#C3EF3C" d="M14.59 10.067c-.24.41-.75.63-1.24.48a1.08 1.08 0 0 1-.77-1.14c.01-.11.12-.18.23-.15l1.66.5c.13.04.19.19.12.31ZM17.32 10.067c.24.41.75.63 1.24.48.51-.15.82-.64.77-1.14-.01-.11-.12-.18-.23-.15l-1.66.5c-.13.04-.19.19-.12.31Z"/></svg>
